X:1
T:Austria (Haydn), 87.87 D
T:Austria (Haydn), 87.87 D
T:Franz Josef Haydn, 1797
T:Public Domain Courtesy of the Cyber Hymnal™
C:Franz Josef Haydn, 1797
Z:Public Domain
Z:Courtesy of the Cyber Hymnal™
%%score ( 1 2 ) ( 3 4 )
L:1/8
Q:1/4=110
M:4/4
K:Eb
V:1 treble 
V:2 treble 
V:3 bass 
V:4 bass 
V:1
 [B,E]3 [B,F] [EG]2 [DF]2 | [FA]2 [EG]2 (FD) [B,E]2 | c2 [EB]2 [FA]2 [EG]2 | [CF]2 (GE) [DB]4 | %4
 [B,E]3 [B,F] [EG]2 [DF]2 | [FA]2 [EG]2 (FD) [B,E]2 | c2 [EB]2 [FA]2 [EG]2 | [CF]2 (GE) [DB]4 | %8
 [B,F]2 [B,G]2 (FD) B,2 | A2 [EG]2 ([DF][B,D]) B,2 | [B,B]2 A2 [EG]3 [EG] | [E=A]3 [EA] [DB]4 | %12
 [Ee]3 [Ed] (dc) [EB]2 | [Ec]3 [EB] (BA) [EG]2 | [DF]2 (GA) (Bc) (AF) | [B,E]2 (GF) E4 |] %16
V:2
 x8 | x4 D2 x2 | (CD) x6 | x2 E2 x4 | x8 | x4 D2 x2 | (CD) x6 | x2 E2 x4 | x4 B,2 x2 | (CD) x6 | %10
 x2 (CD) x4 | x8 | x4 E2 x2 | x4 D2 x2 | x2 D2 E2 C2 | x2 D2 E4 |] %16
V:3
 [E,G,]3 [E,A,] [E,B,]2 [B,,B,]2 | [D,B,]2 [E,B,]2 [B,,A,]2 [E,G,]2 | A,2 [G,B,]2 [D,B,]2 [E,B,]2 | %3
 [A,,A,]2 [=A,,C]2 [B,,F,]4 | [E,G,]3 [E,A,] [E,B,]2 [B,,B,]2 | [D,B,]2 [E,B,]2 [B,,A,]2 [E,G,]2 | %6
 A,2 [G,B,]2 [D,B,]2 [E,B,]2 | [A,,A,]2 [=A,,C]2 [B,,F,]4 | [B,,D,]2 [B,,E,]2 (D,F,) (A,G,) | %9
 [B,,F,]2 (E,G,) (B,F,) D,2 | [G,,G,]2 F,2 [C,E,]3 [C,C] | [F,C]3 [F,,F,] [B,,F,]4 | %12
 [G,C]3 [G,B,] A,2 [E,G,]2 | A,3 [G,B,] [F,B,]2 [E,B,]2 | [B,,B,]2 [A,,B,]2 (B,E,) (CA,) | %15
 [B,,G,]2 [B,,A,]2 [E,,E,G,]4 |] %16
V:4
 x8 | x8 | A,2 x6 | x8 | x8 | x8 | A,2 x6 | x8 | x4 B,,2 B,,2 | x2 B,,2 B,,2 (B,,A,,) | %10
 x2 (A,,B,,) x4 | x8 | x4 A,2 x2 | A,3 x5 | x4 G,,2 A,,2 | x8 |] %16

